src/pos-icons/account-switch-outline.svg

<svg height="24" viewBox="0 0 24 24" width="24" xmlns="http://www.w3.org/2000/svg"><path d="m16 9c6 0 6 4 6 4v2h-6v-2s0-1.69-1.15-3.2c-.17-.23-.38-.45-.6-.66.52-.08 1.09-.14 1.75-.14m-8 2c3.5 0 3.94 1.56 4 2h-8c.06-.44.5-2 4-2m0-2c-6 0-6 4-6 4v2h12v-2s0-4-6-4m1 8v2h6v-2l3 3-3 3v-2h-6v2l-3-3zm-1-14c.55 0 1 .45 1 1s-.45 1-1 1-1-.45-1-1 .45-1 1-1m0-2c-1.66 0-3 1.34-3 3s1.34 3 3 3 3-1.34 3-3-1.34-3-3-3m8 0c-1.66 0-3 1.34-3 3s1.34 3 3 3 3-1.34 3-3-1.34-3-3-3z"/></svg>

<?xml version="1.0" encoding="UTF-8"?><!DOCTYPE svg PUBLIC "-//W3C//DTD SVG 1.1//EN" "http://www.w3.org/Graphics/SVG/1.1/DTD/svg11.dtd"><svg xmlns="http://www.w3.org/2000/svg" xmlns:xlink="http://www.w3.org/1999/xlink" version="1.1" id="mdi-account-switch-outline" width="24" height="24" viewBox="0 0 24 24"><path d="M16 9C22 9 22 13 22 13V15H16V13C16 13 16 11.31 14.85 9.8C14.68 9.57 14.47 9.35 14.25 9.14C14.77 9.06 15.34 9 16 9M8 11C11.5 11 11.94 12.56 12 13H4C4.06 12.56 4.5 11 8 11M8 9C2 9 2 13 2 13V15H14V13C14 13 14 9 8 9M9 17V19H15V17L18 20L15 23V21H9V23L6 20L9 17M8 3C8.55 3 9 3.45 9 4S8.55 5 8 5 7 4.55 7 4 7.45 3 8 3M8 1C6.34 1 5 2.34 5 4S6.34 7 8 7 11 5.66 11 4 9.66 1 8 1M16 1C14.34 1 13 2.34 13 4S14.34 7 16 7 19 5.66 19 4 17.66 1 16 1Z" /></svg>
